app/dist/common/images/codere-online-luxembourg-sa.svg

<svg height="18" viewBox="0 0 18 18" width="18" xmlns="http://www.w3.org/2000/svg"><path d="m0 9a9 9 0 1 1 18 0 9 9 0 1 1 -18 0z" fill="#f0f3fa"/><path d="m12.96 14h-7.92c-.57 0-1.04-.47-1.04-1.04v-7.92c0-.57.47-1.04 1.04-1.04h7.92c.57 0 1.04.47 1.04 1.04v7.92c0 .57-.47 1.04-1.04 1.04z" fill="#79c000"/><g fill="#333f48"><path d="m6 4h6v1h-6zm0 9h6v1h-6z" fill-opacity=".7"/><path d="m11.81 10a2.92 2.92 0 0 1 -2.81 2 3.01 3.01 0 0 1 -2.1-5.16 2.96 2.96 0 0 1 4.9 1.16h-1.7c-.18-.3-.52-.63-1.11-.63-.99 0-1.5.82-1.5 1.63 0 .93.67 1.63 1.56 1.63.38 0 .82-.2 1.06-.63z"/></g></svg>

<!-- by TradingView --><svg width="18" height="18" viewBox="0 0 18 18" xmlns="http://www.w3.org/2000/svg"><path d="M0 9a9 9 0 1 1 18 0A9 9 0 1 1 0 9Z" fill="#F0F3FA"/><path d="M12.96 14H5.04C4.47 14 4 13.53 4 12.96V5.04C4 4.47 4.47 4 5.04 4h7.92c.57 0 1.04.47 1.04 1.04v7.92c0 .57-.47 1.04-1.04 1.04Z" fill="#79C000"/><path d="M6 4H12v1H6V4Zm0 9h6v1H6v-1Z" fill="#333F48" fill-opacity=".7"/><path d="M11.81 10A2.92 2.92 0 0 1 9 12 3.01 3.01 0 0 1 6.9 6.84 2.96 2.96 0 0 1 11.8 8h-1.7c-.18-.3-.52-.63-1.11-.63-.99 0-1.5.82-1.5 1.63 0 .93.67 1.63 1.56 1.63.38 0 .82-.2 1.06-.63h1.7Z" fill="#333F48"/></svg>
